public/images/logo.svg

<svg fill="none" height="20" viewBox="0 0 104 20" width="104" xmlns="http://www.w3.org/2000/svg">
  <g fill="#010101">
    <path d="m1.85258.00317383h2.51335c.48269 0 .94562.19176517 1.28694.53308117.34132.341317.53304.804215.53304 1.286905v1.01335c0 .239-.04704.47568-.13851.69649-.09146.22081-.22553.42145-.39453.59045-.169.16901-.36968.30303-.59049.39449-.22081.09147-.45745.13855-.69645.13855h-2.51335c-.23901 0-.47564-.04708-.69645-.13855-.220816-.09146-.421496-.22548-.590497-.39449-.169002-.169-.303068-.36964-.394531-.59045-.091464-.22081-.1385092-.45749-.1385092-.69649v-1.01335c0-.48269.1917242-.945588.5330402-1.286905.341314-.341316.804257-.53308117 1.286947-.53308117z" />
    <path d="m6.24 6.11658h-6.24v13.66002h6.24z" />
    <path d="m14.4795 19.7766v-14.00003c.0323-.43308.2191-.84014.5262-1.14722s.7141-.49376 1.1471-.52608h3.8468c.4412.02875.8567.21834 1.1676.53288.3108.31454.4955.73218.519 1.17378v13.99997h6.2468v-15.86666c-.0451-1.08885-.5204-2.11529-1.3216-2.85401-.8012-.738709-1.863-1.1292976-2.9518-1.08597521h-11.1534c-1.0882-.04329619-2.149.34749621-2.94924 1.08638521-.80014.73889-1.274 1.76533-1.31734 2.8536v15.83336z" />
    <path d="m36.1937 19.7765v-13.99993c.0324-.43308.219-.84014.5261-1.14722s.7142-.49376 1.1473-.52608h3.8534c.44.0303.8539.22056 1.1634.53495.3094.31439.4932.73118.5166 1.17171v13.99997h6.2466v-15.86667c-.0452-1.08765-.5195-2.11308-1.3192-2.8516-.7998-.738524-1.8597-1.1298937-2.9474-1.08838047h-11.1868c-1.0882-.04329623-2.1492.34749647-2.9493 1.08638047-.8002.7389-1.2739 1.76534-1.3173 2.8536v15.83327z" />
    <path d="m67.0466.00325479h-11.1535c-1.0888-.04332239-2.1505.34726621-2.9517 1.08597521-.8012.73872-1.2766 1.76516-1.3216 2.85401v11.89336c.0468 1.0882.5227 2.1137 1.3235 2.852s1.8614 1.1295 2.9498 1.088h11.1535c1.0887.0415 2.1487-.3497 2.95-1.088.8007-.7383 1.2767-1.7638 1.3234-2.852v-11.89336c-.0454-1.08885-.5207-2.11529-1.322-2.85401-.8007-.738709-1.8627-1.1292976-2.9514-1.08597521zm-3.64 15.68004521h-3.8801c-.4423-.0259-.8594-.2146-1.1708-.5298-.3114-.3151-.4953-.7343-.5159-1.1769v-8.21333c.0298-.43688.2173-.84809.5275-1.15711.3103-.30902.7222-.49484 1.1592-.52291h3.8533c.4414.02875.8567.21834 1.1675.53288s.4956.73218.5192 1.17378v8.22669c-.0296.4323-.2148.8392-.5212 1.1456s-.7132.4915-1.1454.5211" />
    <path d="m88.2993.00317383-8.74 15.02672617v-15.02672617h-6.2467v15.83332617c.0467 1.0882.5227 2.1137 1.3234 2.852.8006.7384 1.8613 1.1296 2.95 1.088h2c.664-.0073 1.3153-.1852 1.8906-.5168.576-.3316 1.0567-.8056 1.396-1.3765l10.38-17.87335298z" />
  </g>
  <path d="m94.9807 13.5567c0-.3718.0734-.74.2154-1.0833.1426-.3434.3513-.6553.6146-.9179.2634-.2625.576-.4706.9194-.6123.344-.1416.7119-.2141 1.0839-.2132.7494 0 1.4687.2978 1.9987.8279.5303.5301.8283 1.2491.8283 1.9988 0 .3718-.072.74-.214 1.0837s-.35.6561-.6123.9193c-.262.2632-.574.472-.9173.6145-.3434.1425-.712.2158-1.0834.2158-.7513 0-1.4719-.2985-2.0033-.8299-.5313-.5313-.83-1.252-.83-2.0034z" fill="#ed1c2e" />
  <path d="m99.66.00325479h-2c-.664.00728541-1.3154.18527821-1.8907.51684621-.576.331566-1.056.805549-1.396 1.376469l-10.38 17.88003h4.9267l8.74-15.02668v5.37338h.1266c.9113.0017 1.7847.365 2.4284 1.0099.644.6449 1.005 1.5189 1.005 2.43 0 .9112-.361 1.7852-1.005 2.4301-.6437.645-1.5171 1.0082-2.4284 1.01h-.1266v2.7866h6.247v-15.84666c-.045-1.08885-.52-2.11529-1.322-2.85401-.801-.738709-1.862-1.1292976-2.9517-1.08597521" fill="#010101" />
</svg>

<svg
    width="104"
    height="20"
    viewBox="0 0 104 20"
    fill="none"
    xmlns="http://www.w3.org/2000/svg"
  >
    <g clipPath="url(#clip0_994_16428)">
      <path
        fillRule="evenodd"
        clipRule="evenodd"
        d="M1.85258 0.00317383H4.36593C4.84862 0.00317383 5.31155 0.194939 5.65287 0.536255C5.99419 0.877572 6.18591 1.34047 6.18591 1.82316V2.83651C6.18591 3.07551 6.13887 3.31219 6.0474 3.533C5.95594 3.75381 5.82187 3.95445 5.65287 4.12345C5.48387 4.29246 5.28319 4.42648 5.06238 4.51794C4.84157 4.60941 4.60493 4.65649 4.36593 4.65649H1.85258C1.61357 4.65649 1.37694 4.60941 1.15613 4.51794C0.935314 4.42648 0.734634 4.29246 0.565633 4.12345C0.396631 3.95445 0.262565 3.75381 0.171102 3.533C0.079638 3.31219 0.0325928 3.07551 0.0325928 2.83651V1.82316C0.0325928 1.34047 0.224317 0.877572 0.565633 0.536255C0.906947 0.194939 1.36989 0.00317383 1.85258 0.00317383Z"
        fill="#005A9B"
      />
      <path d="M6.24 6.11658H0V19.7766H6.24V6.11658Z" fill="#005A9B" />
      <path
        d="M14.4795 19.7766V5.77657C14.5118 5.34349 14.6986 4.93643 15.0057 4.62935C15.3128 4.32227 15.7198 4.13559 16.1528 4.10327H19.9996C20.4408 4.13202 20.8563 4.32161 21.1672 4.63615C21.478 4.95069 21.6627 5.36833 21.6862 5.80993V19.8099H27.933V3.94324C27.8879 2.85439 27.4126 1.82795 26.6114 1.08923C25.8102 0.350521 24.7484 -0.0400676 23.6596 0.00325479H12.5062C11.418 -0.0400414 10.3572 0.350751 9.55696 1.08964C8.75682 1.82853 8.28296 2.85497 8.23962 3.94324V19.7766H14.4795Z"
        fill="#005A9B"
      />
      <path
        d="M36.1937 19.7765V5.77657C36.2261 5.34349 36.4127 4.93643 36.7198 4.62935C37.0269 4.32227 37.434 4.13559 37.8671 4.10327H41.7205C42.1605 4.13357 42.5744 4.32383 42.8839 4.63822C43.1933 4.95261 43.3771 5.3694 43.4005 5.80993V19.8099H49.6471V3.94323C49.6019 2.85558 49.1276 1.83015 48.3279 1.09163C47.5281 0.353106 46.4682 -0.0382637 45.3805 0.00324953H34.1937C33.1055 -0.0400467 32.0445 0.350746 31.2444 1.08963C30.4442 1.82853 29.9705 2.85497 29.9271 3.94323V19.7765H36.1937Z"
        fill="#005A9B"
      />
      <path
        d="M67.0466 0.00325479H55.8931C54.8043 -0.0400676 53.7426 0.350521 52.9414 1.08923C52.1402 1.82795 51.6648 2.85439 51.6198 3.94324V15.8366C51.6666 16.9248 52.1425 17.9503 52.9433 18.6886C53.7441 19.4269 54.8047 19.8181 55.8931 19.7766H67.0466C68.1353 19.8181 69.1953 19.4269 69.9966 18.6886C70.7973 17.9503 71.2733 16.9248 71.32 15.8366V3.94324C71.2746 2.85439 70.7993 1.82795 69.998 1.08923C69.1973 0.350521 68.1353 -0.0400676 67.0466 0.00325479ZM63.4066 15.6833H59.5265C59.0842 15.6574 58.6671 15.4687 58.3557 15.1535C58.0443 14.8384 57.8604 14.4192 57.8398 13.9766V5.76327C57.8696 5.32639 58.0571 4.91518 58.3673 4.60616C58.6776 4.29714 59.0895 4.11132 59.5265 4.08325H63.3798C63.8212 4.112 64.2365 4.30159 64.5473 4.61613C64.8581 4.93067 65.0429 5.34831 65.0665 5.78991V14.0166C65.0369 14.4489 64.8517 14.8558 64.5453 15.1622C64.2389 15.4686 63.8321 15.6537 63.3999 15.6833"
        fill="#005A9B"
      />
      <path
        d="M88.2993 0.00317383L79.5593 15.0299V0.00317383H73.3126V15.8365C73.3593 16.9247 73.8353 17.9502 74.636 18.6885C75.4366 19.4269 76.4973 19.8181 77.586 19.7765H79.586C80.25 19.7692 80.9013 19.5913 81.4766 19.2597C82.0526 18.9281 82.5333 18.4541 82.8726 17.8832L93.2526 0.00984702L88.2993 0.00317383Z"
        fill="#005A9B"
      />
      <path
        d="M94.9807 13.5567C94.9807 13.1849 95.0541 12.8167 95.1961 12.4734C95.3387 12.13 95.5474 11.8181 95.8107 11.5555C96.0741 11.293 96.3867 11.0849 96.7301 10.9432C97.0741 10.8016 97.442 10.7291 97.814 10.73C98.5634 10.73 99.2827 11.0278 99.8127 11.5579C100.343 12.088 100.641 12.807 100.641 13.5567C100.641 13.9285 100.569 14.2967 100.427 14.6404C100.285 14.9841 100.077 15.2965 99.8147 15.5597C99.5527 15.8229 99.2407 16.0317 98.8974 16.1742C98.554 16.3167 98.1854 16.39 97.814 16.39C97.0627 16.39 96.3421 16.0915 95.8107 15.5601C95.2794 15.0288 94.9807 14.3081 94.9807 13.5567Z"
        fill="#ED1C2E"
      />
      <path
        d="M99.66 0.00325479H97.66C96.996 0.0105402 96.3446 0.188533 95.7693 0.520101C95.1933 0.851667 94.7133 1.32565 94.3733 1.89657L83.9933 19.7766H88.92L97.66 4.74992V10.1233H97.7866C98.6979 10.125 99.5713 10.4883 100.215 11.1332C100.859 11.7781 101.22 12.6521 101.22 13.5632C101.22 14.4744 100.859 15.3484 100.215 15.9933C99.5713 16.6383 98.6979 17.0015 97.7866 17.0033H97.66V19.7899H103.907V3.94324C103.862 2.85439 103.387 1.82795 102.585 1.08923C101.784 0.350521 100.723 -0.0400676 99.6333 0.00325479"
        fill="#005A9B"
      />
    </g>
    <defs>
      <clipPath id="clip0_994_16428">
        <rect width="104" height="20" fill="white" />
      </clipPath>
    </defs>
  </svg>
